X:1
T:Waiting for Me
T:Waiting for Me
T:I. F. Groves
T:Eddie Lou Adkins, 1898
T:Public Domain Courtesy of the Cyber Hymnal™
T:Public Domain Courtesy of the Cyber Hymnal™
C:I. F. Groves
Z:Public Domain
Z:Courtesy of the Cyber Hymnal™
%%score ( 1 2 ) ( 3 4 )
L:1/8
Q:1/4=103
M:4/4
K:F
V:1 treble 
V:2 treble 
V:3 bass 
V:4 bass 
V:1
 F[FG] | [FA]3 [FA] [FB]2 [FB]2 | (A2 c4) [Fc][Fc] | [Fd]3 [Ff] [Fe]2 [Fd]2 | [Fc]6 F[FG] | %5
w: 1.~There’s a|boat that waits for|me, * Moored be-|side a sun- ny|shore; It will|
w: 2.~There’s a|crown that waits for|me, * In that|king- dom vast and|grand; There’s a|
w: 3.~There’s a|harp that waits for|me, * Strung by|hands di- vine- ly|fair; Oh, the|
 [FA]3 [FA] [FB]2 [FB]2 | (A2 c4) F[FG] | [FA]3 [CF] [CG]2 [CG]2 | [CF]6 ||"^Refrain" (3(FA)[Ac] | %10
w: bear me ’cross the|sea, * When the|boat- man plies his|oar.||
w: seat re- served for|me, * O- ver|there at God’s right|hand.|When * the|
w: glo- ries I shall|see! * Oh, the|bless- ings I shall|share!||
 [Af]>[Ge] [Ge]>[Ge] ([ce][Bd]) (3([Ac][GB])[FA] | %11
w: |
w: boat- man plies the oar, * When * the|
w: |
 [Fd]>[Fc] [Fc]>[Fc] ([Ac][GB]) (3([FA][EG])F x3/8 | [EG]3 [EG] [FA]2 [F=B]2 | [Ec]6 (3(FA)[Ac] | %14
w: |||
w: boat- man plies the oar, * When * the|bark glides o’er the|sea, When * I|
w: |||
 [Af]>[Ge] [Ge]>[Ge] ([ce][Bd]) (3([Ac][GB])[FA] | %15
w: |
w: reach the gol- den strand, * When * I|
w: |
 [Fd]>[Fc] [Fc]>[Fc] ([Ac][GB]) (3([FA][EG])F x3/8 | [FA]3 [GB] [FA]2 [EG]2 | F6 |] %18
w: |||
w: reach the gol- den strand, * Christ * will|wait to wel- come|me.|
w: |||
V:2
 F x | x8 | F6 x2 | x8 | x6 F x | x8 | F6 F x | x8 | x6 || F2 | x8 | x22/3 F | x8 | x6 F2 | x8 | %15
 x22/3 F | x8 | F6 |] %18
V:3
 [F,A,][F,B,] | [F,C]3 [F,C] [F,D]2 [F,D]2 | (C2 A,4) [F,A,][F,A,] | %3
 [B,,B,]3 [B,,D] [B,,C]2 [B,,B,]2 | [F,A,]6 [F,A,][F,B,] | [F,C]3 [F,C] [F,D]2 [F,D]2 | %6
 (C2 A,4) [A,,C][B,,D] | [C,C]3 [C,A,] [C,B,]2 [C,B,]2 | [F,A,]6 || (3:2:2[F,A,]2 [F,A,] | %10
 [C,C]>[C,C] [C,C]>[C,C] [C,C]2 (3:2:2[C,C]2 [C,C] | %11
 [F,B,]>[F,A,] [F,A,]>[F,A,] [F,C]2 (3(CB,)[G,B,] x3/8 | G,3 [G,C] [G,D]2 [G,D]2 | %13
 [C,C]6 (3:2:2[F,A,]2 [F,A,] | [C,C]>[C,C] [C,C]>[C,C] [C,C]2 (3:2:2[C,C]2 [C,C] | %15
 [F,B,]>[F,A,] [F,A,]>[F,A,] [F,C]2 (3(CB,)[F,A,] x3/8 | [B,,D]3 [B,,D] [C,C]2 [C,B,]2 | %17
 [F,,F,A,]6 |] %18
V:4
 x2 | x8 | F,6 x2 | x8 | x8 | x8 | F,6 x2 | x8 | x6 || x2 | x8 | x6 F,2 x3/8 | G,3 x5 | x8 | x8 | %15
 x6 F,2 x3/8 | x8 | x6 |] %18

